!! 00000] TT[WS
!!!OTL: Gei anmen xun xiage huilaohan
!!!ARE: Asia, China,ÿShanxi Xixian
!! Ethnic Group: Han
!! WI, 83
!!!SCT: J0100
!!!YEM: Copyright 1995, estate of Helmut Schaffrath.
**kern
*ICvox
*Ivox
*M2/4
*k[f#]
*G:
{8a
8g
8a
8b
=1
8dd
4a
8g
=2
8.a
16g
8e
8g
=3
4.d
8A}
=4
{8.d
16e
8g
8a
=5
8a
4g
8e
=6
4.g
8e
=7
8d
8e
8d
8B
=8
2A}
==
!!!AGN: Xiaodiao. Qingge, Aisu
!!!ONB: ESAC (Essen Associative Code) Database: CHINA
!!!AMT: simple duple
!!!AIN: vox
!!!EED: Helmut Schaffrath
!!!EEV: 1.0
*-
